X:22
T:Durant les guerres d'outremer
R:Branle double
A:Normandie
O:France
M:C|
L:1/4
Q:1/2=100
K:F
F/2-G/2|ABcd|cBAG|ABcd| c2A","c|ddfd|cBA","c|BAGF|c2 Ac| !
BAGF|G/2F/2E/2D/2 C","F|BAGF|G2 F","c|BAGF|G/2F/2E/2D/2 C","F|BAGF|G2 F|
|
